workspaces/osm/styles/symbols/bus_stop.12.svg

<svg width="12" height="12" version="1.1" viewBox="0 0 12 12" xmlns="http://www.w3.org/2000/svg"><rect width="12" height="12" fill="none" visibility="hidden"/><path d="m3 1-1 1v8h0.65625c0.0551 0.4036 0.23912 0.89669 0.68635 0.98877 0.38629 0.08992 0.71142-0.2368 0.81232-0.58203 0.094653-0.15622 0.0031579-0.48268 0.26478-0.40674h3.3303c0.061806 0.39453 0.22565 0.88543 0.66237 0.98877 0.37119 0.07731 0.74846-0.17532 0.84897-0.53558 0.11574-0.149-0.033947-0.523 0.23514-0.45319h0.50351v-8l-1-1h-6zm1 1h4v1h-4v-1zm-1 2h6v3h-6v-3zm0 4h1v1h-1v-1zm5 0h1v1h-1v-1z"/></svg>

<?xml version="1.0" encoding="UTF-8" standalone="no"?>
<svg xmlns="http://www.w3.org/2000/svg" viewBox="0 0 12 12" height="12" width="12" version="1.1">
  <rect style="fill:none;stroke:none;visibility:hidden" y="0" x="0" height="12" width="12" />
  <path d="m 3,1 -1,1 0,8 0.65625,0 c 0,0 0.1011489,1 0.81275,1 0.6891295,0 0.781,-1 0.781,-1 l 3.5,0 c 0,0 0.1143421,1 0.781,1 0.8164686,0 0.81275,-1 0.81275,-1 L 10,10 10,2 9,1 Z M 4,2 8,2 8,3 4,3 Z M 3,4 9,4 9,7 3,7 Z M 3,8 4,8 4,9 3,9 Z M 8,8 9,8 9,9 8,9 Z" />
</svg>
